X:720
T:Reel 720
M:4/4
K:Dmaj
L:1/8
AG|FDEC A,DDd|FGEF GBAG|FDEC DCA,C|CDEF GFEG|FDEC A,DD2|FGAF AFGE|FAGE FDEC|A,B,CD EFGE|Addc d2Ad|dAAc BGGB|Acdc d2dc| (3fed ec dBAG|Addc dfed|cdcA GcEc|dfec dcBA|BGEF DABd|
